X: 27
T:Chuck Furey's Reel
R:Reel
C:Emile Benoit
M:C|
L:1/8
Z:Gerry Strong
K:D
ED|B,EEF G2 GB|AGFA BEED|B,EEF GFGB|AGFD E2 ED|B,EEF G2 GB|AGFA BEED|B,E
EF GFGB|AGFD E2 E2||
Beed B2 BA|GABA GE E2|Beed B2 AB|Bede fe ~e2|Beed B2 BA|GABA GEED|B,EEF
GBGB|AGFD E4||

